src/icons/outline/communication/phone-off.svg

<svg width="24" height="24" viewBox="0 0 24 24" fill="none" xmlns="http://www.w3.org/2000/svg">
<g clip-path="url(#clip0_4191_656)">
<path fill-rule="evenodd" clip-rule="evenodd" d="M21.7583 1.70369C22.0396 1.43526 22.5053 1.43529 22.7866 1.70369C23.0679 1.97217 23.0678 2.41661 22.7866 2.68514L2.24171 22.2965C2.09621 22.4354 1.91136 22.5006 1.72706 22.5006C1.54292 22.5005 1.35877 22.4352 1.21339 22.2965C0.932131 22.028 0.93212 21.5835 1.21339 21.315L6.20948 16.5465C4.52607 14.7122 3.33726 12.8611 2.67823 11.0279C1.67912 8.29643 2.14503 5.42559 3.88136 3.5367C4.10443 3.28686 4.41475 3.0459 4.70558 2.82381L5.15187 2.45369L5.1714 2.43709C5.5073 2.15294 5.92036 1.80391 6.53858 1.6949C8.12823 1.40808 9.07896 2.8315 9.70948 3.77596L9.71046 3.77791L9.80812 3.91658C10.4386 4.85175 11.2335 6.03744 10.8843 7.38924C10.6999 8.12052 10.1468 8.54619 9.70069 8.87947L9.46827 9.06502C9.36332 9.15685 9.24219 9.24127 9.1128 9.33162L9.07081 9.36092C8.79921 9.55536 8.48839 9.77827 8.43019 9.96346C8.23889 10.6038 8.7855 11.4339 9.00441 11.7662L9.01222 11.7779C9.29662 12.2025 9.60312 12.6113 9.92726 12.9967L21.7583 1.70369ZM6.8003 3.05525C6.63829 3.08224 6.48143 3.18769 6.31105 3.32479L6.11183 3.4908L5.61769 3.89803C5.3558 4.10172 5.1128 4.29629 4.9673 4.45369C3.59965 5.94435 3.23079 8.35169 4.04542 10.5738C4.63898 12.2116 5.712 13.8838 7.2378 15.565L8.89015 13.9869C8.49754 13.532 8.13036 13.0424 7.78956 12.5279C7.47908 12.0648 6.66514 10.8422 7.0337 9.59236C7.21704 8.95732 7.75482 8.56926 8.18995 8.25545L8.19776 8.24959L8.24073 8.21932C8.34017 8.14838 8.43244 8.08206 8.5171 8.00936C8.6044 7.93528 8.70226 7.86128 8.78956 7.79646L8.79054 7.79549C9.11979 7.54591 9.40046 7.33267 9.46827 7.05525C9.66986 6.28476 9.14778 5.51379 8.63819 4.76131L8.62452 4.7408L8.57569 4.66658L8.47901 4.52791C7.9067 3.6668 7.37261 2.9534 6.8003 3.05525Z" fill="#3C3B44"/>
<path fill-rule="evenodd" clip-rule="evenodd" d="M16.5591 13.7779C18.0507 13.5575 19.0648 14.4123 19.8101 15.0406L19.8276 15.0553L20.3423 15.481C21.1183 16.0921 22.1756 16.9352 22.0884 18.1666C22.0211 18.9835 21.4292 19.4734 20.9937 19.8336L20.9819 19.8424L20.895 19.9166C20.8272 19.9721 20.7613 20.0296 20.6958 20.0875C20.6304 20.1453 20.5654 20.2039 20.4976 20.2594C20.2163 20.5186 19.925 20.7778 19.5952 20.9908C18.5088 21.6667 17.2182 22.0094 15.7534 22.0094V21.9996H15.4722C13.8719 21.9532 12.6205 21.417 11.6021 20.9078C10.5545 20.38 9.56507 19.7132 8.57569 18.8707C8.42058 18.7411 8.3336 18.565 8.33351 18.3707C8.33351 18.1763 8.41062 17.9905 8.5464 17.8609L11.3208 15.2496C11.5827 15.009 11.981 14.982 12.272 15.1949C12.8343 15.602 13.2615 15.7685 13.5718 15.7037C13.9305 15.6388 14.183 15.3883 14.5708 14.981C15.0267 14.5089 15.599 13.9168 16.5591 13.7779ZM16.7915 15.1392C16.3552 15.2041 16.0737 15.4727 15.6567 15.9078C15.2106 16.3707 14.7056 16.8891 13.8716 17.0465C13.2353 17.1678 12.636 16.9917 12.1323 16.7349L11.9224 16.6207L10.1372 18.2965C10.8452 18.8427 11.5535 19.2962 12.2905 19.6666C13.2023 20.1295 14.2212 20.5651 15.521 20.6021C16.8013 20.6392 17.907 20.3704 18.8091 19.815C19.0322 19.6761 19.2658 19.463 19.5083 19.2408L19.9448 18.8521L20.0415 18.7779C20.41 18.4817 20.6334 18.2779 20.6528 18.0465C20.6916 17.5372 19.9928 16.9811 19.4302 16.5367L18.8775 16.0836L18.854 16.064C18.2407 15.5517 17.6152 15.0295 16.7915 15.1392Z" fill="#3C3B44"/>
</g>
<defs>
<clipPath id="clip0_4191_656">
<rect width="24" height="24" fill="white"/>
</clipPath>
</defs>
</svg>

<svg xmlns="http://www.w3.org/2000/svg" width="24" height="24" fill="none" viewBox="0 0 24 24"><g fill="currentColor" fill-rule="evenodd" clip-path="url(#a)" clip-rule="evenodd"><path d="M21.758 1.704a.757.757 0 0 1 1.029 0 .676.676 0 0 1 0 .981L2.242 22.297a.74.74 0 0 1-.515.204.74.74 0 0 1-.514-.204.676.676 0 0 1 0-.982l4.996-4.768c-1.683-1.835-2.872-3.686-3.53-5.52-1-2.73-.534-5.601 1.202-7.49.223-.25.534-.491.825-.713l.446-.37.02-.017c.335-.284.748-.633 1.367-.742 1.59-.287 2.54 1.137 3.17 2.081l.001.002.098.139c.63.935 1.425 2.12 1.076 3.472-.184.732-.737 1.157-1.183 1.49l-.233.186c-.105.092-.226.176-.355.267l-.042.029c-.272.194-.583.417-.64.602-.192.64.355 1.47.573 1.803l.008.012q.428.639.915 1.219zM6.8 3.055c-.162.027-.319.133-.489.27l-.2.166-.493.407c-.262.204-.505.398-.65.556-1.368 1.49-1.737 3.898-.923 6.12.594 1.638 1.667 3.31 3.193 4.991l1.652-1.578c-.392-.455-.76-.945-1.1-1.46-.31-.462-1.125-1.685-.756-2.935.183-.635.72-1.023 1.156-1.337l.008-.005.043-.03c.1-.072.191-.138.276-.21.087-.075.185-.149.273-.214.33-.25.61-.463.678-.74.202-.771-.32-1.542-.83-2.295l-.013-.02-.05-.074-.096-.14c-.572-.86-1.106-1.574-1.679-1.472m9.76 10.723c1.49-.22 2.505.634 3.25 1.263l.018.014.514.426c.776.611 1.834 1.454 1.746 2.686-.067.816-.659 1.306-1.094 1.667l-.012.008-.087.075a7 7 0 0 0-.2.17q-.097.088-.197.172c-.282.26-.573.519-.903.732-1.086.676-2.377 1.018-3.842 1.018V22h-.28c-1.601-.046-2.853-.582-3.87-1.091-1.048-.528-2.038-1.195-3.027-2.037a.65.65 0 0 1-.242-.5c0-.195.077-.38.212-.51l2.775-2.611a.75.75 0 0 1 .951-.055c.562.407.99.573 1.3.509.359-.065.611-.316.999-.723.456-.472 1.028-1.064 1.988-1.203m.232 1.361c-.437.065-.718.334-1.135.769-.446.463-.951.981-1.785 1.139-.637.12-1.236-.055-1.74-.312l-.21-.114-1.785 1.676c.708.546 1.416 1 2.153 1.37.912.462 1.931.898 3.231.935 1.28.037 2.386-.232 3.288-.787.223-.139.457-.352.7-.574l.436-.389.096-.074c.369-.296.592-.5.612-.731.039-.51-.66-1.066-1.223-1.51l-.552-.453-.024-.02c-.613-.512-1.239-1.034-2.062-.925"/></g><defs><clipPath id="a"><path fill="currentColor" d="M0 0h24v24H0z"/></clipPath></defs></svg>
